X: 39396
T: Tap Room, The
R: reel
M: 4/4
K: Eminor
|:Beef e2dB|AD (3FED FAAc|Beef edBc|dBAc BEE2|
Beef e2dB|AD (3FED FAAc|Beef edBc|dBAc BEE2:|
|:(3Bcd eg fde^c|defg afed|(3Bcd eg fde^c|dBAc BEE2|
(3Bcd eg fde^c|defg afef|g2ge f2fe|dBAc BEE2:|

